X:1
T:Sonata No. 16
T:3 rd Movement K. 545
T:Wolfgang Amadeus Mozart (1756–1791)
%%score { 1 | ( 2 3 ) }
L:1/8
Q:1/4=104
M:2/4
K:C
V:1 treble nm="Piano"
V:2 bass 
V:3 bass 
V:1
"^RONDO\nAllegretto"!mf! .[eg].[eg] | .[ce] z .[df].[df] | .[Bd] z!p! (c/d/e/c/ | %3
 A/B/c/^c/ d/e/f/d/ | =c/B/A/G/)!f! .[eg].[eg] | .[ce] z .[fa].[fa] | .[Bd] z (a/g/f/e/ | %7
 ^c/d/e/f/ A/=c/B/d/ | .c) z :|!mf! (e/^f/g/)(g/ | a/g/^f/e/) .d/.d/.d/.d/ | %11
 (e/d/c/B/) (e'/d'/c'/b/ | ^g/a/b/c'/ e/^f/=g/a/ |!>(! g/^f/e/!>)!d/)!p! .[bd'].[bd'] | %14
 .[gb] z .[ac'].[ac'] | .[^fa] z (g/a/b/g/ | ^d/e/g/e/ =d/B/c/A/ | G) z (G/A/B/c/ | %18
 .d) z (B/c/d/e/ | .=f) z (d/e/f/g/ | a)._a.g.^f | .=f z!mf! .[eg].[eg] | .[ce] z .[df].[df] | %23
 .[Bd] z!p! (c/d/e/c/ | A/B/c/^c/ d/e/f/d/ | =c/B/A/G/)!f! .[eg].[eg] | .[ce] z .[fa].[fa] | %27
 .[Bd] z (a/g/f/e/ | ^c/d/e/f/ A/=c/B/d/ | .c) z z2 | (e/^d/f/e/) z2 | (e/^d/f/e/) .[ec'].[ec'] | %32
 .[ca] z .[=db].[db] | .[B^g] z!mf! (a/e/c/A/ | c/_B/).B/.B/ (d/^c/).c/.c/ | %35
 (e/d/)(f/e/) (g/f/)(f/e/) | (e/^d/) (c'2 d) |!f! e z (b/^g/e/=d/ | c/e/a/^g/ a/e/c/A/ | %39
 ^G/B/e/^g/ b/g/e/d/ | c/e/a/^g/ a/e/c/A/ | E) z!p! .[ce].[ce] | .[Ac] z .[Bd].[Bd] | .[^GB] z z2 | %44
 (E/^D/F/E/) z2 | (e'/^d'/f'/e'/ =d'/^c'/e'/d'/) | (d'/=c'/)(c'/b/) (b/a/)(a/g/) | %47
!<(! (g/f/)(f/e/) (e/d/)!<)!(d/c/) |!>(! (_B/f/!>)!d/B/!p! A^G) | A z (^G/d/B/G/ | %50
 A) z (^G/d/B/G/ | A) z (^G/d/B/G/ | A/e/c/A/ B/f/d/B/) | %53
[Q:1/4=52]"^52"!mf!"_poco " !fermata!z2[Q:1/4=104]"^104" .[eg].[eg] | .[ce] z .[df].[df] | %55
 .[Bd] z!p! (c/d/e/c/ | A/B/c/^c/ d/e/f/d/ | =c/B/A/G/)!f! .[eg].[eg] | .[ce] z .[fa].[fa] | %59
 .[Bd] z (a/g/f/e/ | ^c/d/e/f/ A/=c/B/d/ | .c) z (B/f/d/B/ | a/g/f/e/ d/f/d/B/ | %63
 a/g/f/e/) (d'/c'/b/a/) | (a/g/).f/.e/ (e/d/).c/.B/ | dc (B/f/d/B/ | a/g/f/e/ d/f/d/B/ | %67
 a/g/f/e/) (d'/c'/b/a/) | (a/g/).f/.e/ (e/d/).c/.B/ |!f! (c/e/G/c/ E/G/C/E/ | %70
 G/c/).[ce]/.[eg]/ ([eg]/[df]/).[ce]/.[Bd]/ | (c/e/G/c/ E/G/C/E/ | %72
 G/c/).[ce]/.[eg]/ ([eg]/[df]/).[ce]/.[Bd]/ | .c.[egc'] .[Ec].[Ec] | [Ec]2 z2 |] %75
V:2
 z2 | .[A,C].[A,C] .[F,A,] z | .[G,B,].[G,B,] .[E,G,] z | (F,3 D, | G,) z z2 | %5
 .[A,C].[A,C] .[F,A,] z | .[G,B,].[G,B,] .[C,E,] z | [F,A,]3 [G,F] | .[CE].C, :| %9
[K:treble] C/G/E/G/ | B,/G/D/G/[K:bass] ^F,/D/A,/D/ | G,/D/B,/D/ B,,/G,/D,/G,/ | %12
 C,/A,/E,/A,/ ^C,/A,/E,/A,/ | D, z z2 |[K:treble] .[EG].[EG] .[CE] z | .[D^F].[DF] .[B,D] z | %16
[K:bass] (G,3 ^F, | .G,).G,, z2 | .[G,B,].G,, z2 | .[G,B,].G,, z2 | z4 | z4 | %22
 .[A,C].[A,C] .[F,A,] z | .[G,B,].[G,B,] .[E,G,] z | (F,3 D, | G,) z z2 | .[A,C].[A,C] .[F,A,] z | %27
 .[G,B,].[G,B,] .[C,E,] z | [F,A,]3 [G,F] | .[CE].C,!p! .[CE].[CE] | .[A,C] z .[B,D].[B,D] | %31
 .[^G,B,] z z2 | (E/^D/F/E/) z2 | (E/^D/F/E/)[K:treble] [CE]2 | [DF]2 [EG]2 | A4 | [FA] z [FA] z | %37
[K:bass] (E,/E/^G,/E/ B,/E/G,/E/ | E,/E/A,/E/ C/E/A,/E/ | E,/E/^G,/E/ B,/E/G,/E/ | %40
 E,/E/A,/E/ C/E/A,/E/ | E,) z z2 | (E/^D/F/E/) z2 | (E/^D/F/E/) .[E,C].[E,C] | %44
 .[C,A,] z .[D,B,].[D,B,] | .[B,,^G,] z [G,B,]2 | [A,C][B,D][K:treble] E2 | A4 | %48
 [DF]2[K:bass] (C=B,) | (A,/C/E/C/ E,/B,/D/B,/ | A,/C/E/C/ E,/B,/D/B,/ | A,/C/E/C/ E,/B,/D/B,/ | %52
 A,/C/E/C/ =G,/D/F/D/) | !fermata!z2 z2 | .[A,C].[A,C] .[F,A,] z | .[G,B,].[G,B,] .[E,G,] z | %56
 (F,3 D, | G,) z z2 | .[A,C].[A,C] .[F,A,] z | .[G,B,].[G,B,] .[C,E,] z | [F,A,]3 [G,F] | %61
 .[CE].C, F,/B,/G,/B,/ | E,/C/G,/C/ F,/B,/G,/B,/ | E,/C/G,/C/ F,/D/A,/D/ | G,/E/C/E/ G,/F/D/F/ | %65
[K:treble] C/G/E/G/[K:bass] F,/B,/G,/B,/ | E,/C/G,/C/ F,/B,/G,/B,/ | E,/C/G,/C/ F,/D/A,/D/ | %68
 G,/E/C/E/ G,/F/D/F/ | (C/E/G,/C/ E,/G,/C,/E,/ | G,) z G,, z | (C/E/G,/C/ E,/G,/C,/E,/ | %72
 G,) z G,, z | .[C,,C,].[E,,E,].[G,,G,].[E,,E,] | [C,,C,]2 z2 |] %75
V:3
 x2 | x4 | x4 | x4 | x4 | x4 | x4 | x4 | x2 :|[K:treble] x2 | x2[K:bass] x2 | x4 | x4 | x4 | %14
[K:treble] x4 | x4 |[K:bass] (C,2 D,2) | x4 | x4 | x4 | x4 | x4 | x4 | x4 | x4 | x4 | x4 | x4 | %28
 x4 | x4 | x4 | x4 | x4 | x2[K:treble] x2 | x4 | F^C DE | x4 |[K:bass] x4 | x4 | x4 | x4 | x4 | %42
 x4 | x4 | x4 | x4 | x2[K:treble] C^C | DEFE | x2[K:bass] E,2 | x4 | x4 | x4 | x4 | x4 | x4 | x4 | %56
 x4 | x4 | x4 | x4 | x4 | x4 | x4 | x4 | x4 |[K:treble] x2[K:bass] x2 | x4 | x4 | x4 | x4 | x4 | %71
 x4 | x4 | x4 | x4 |] %75

